X:245
T:Rock The Cradle, Joe
Z:Jack Campin, http://www.campin.me.uk/
F:Jack Campin's Nine-Note Tunebook
% last edit 03-02-2013
M:C|
L:1/8
Q:1/2=100
K:F
c2-|cdcB AFAB |cdcB A2c2-|cdcB AGF2|A3G A2
A2-|AGAG F2A2-|AcAG F2GA |BAGF ECDE|F3G F2:|
FD |CEEE CEEE |CF2E F2GA |B2BA Bcdc|A3G AG
FD |CEEE CEEE |CF2E F2GA |BAGF ECDE|F3G F2:|

